Origami/64x64/apps/krdc.svg

<svg width="64" height="64" version="1" xmlns="http://www.w3.org/2000/svg">
 <path d="m4 50.002v2c0 1.662 1.338 3 3 3h50c1.662 0 3-1.338 3-3v-2c0 1.662-1.338 3-3 3h-50c-1.662 0-3-1.338-3-3z" style="opacity:.2"/>
 <rect transform="matrix(0,-1,-1,0,0,0)" x="-54" y="-60" width="44" height="56" rx="3" ry="3" style="fill:#325f78"/>
 <rect transform="matrix(0,-1,-1,0,0,0)" x="-50" y="-56" width="36" height="48" rx="0" ry="0" style="opacity:.2"/>
 <path d="m7 10.001953c-1.662 0-3 1.338-3 3v0.998047c0-1.662 1.338-3 3-3h50c1.662 0 3 1.338 3 3v-0.998047c0-1.662-1.338-3-3-3h-50z" style="fill:#ffffff;opacity:.1"/>
 <path d="M 63.958,45.852 A 16,16 0 0 1 48,61.004 16,16 0 0 1 32.042,46.156 16,16 0 0 0 32,47 16,16 0 0 0 48,63 16,16 0 0 0 64,47 16,16 0 0 0 63.95704,45.85156 Z" style="opacity:.2"/>
 <circle cx="48" cy="46.002" r="16" style="fill-rule:evenodd;fill:#48cd42"/>
 <path d="m40 38.004h1.34374c8.1 0 14.66 6.556 14.66 14.656v1.344h-1.64349c-0.72872 0-1.3125-0.61022-1.3125-1.34376 0-6.6274-5.07287-11.70024-11.70027-11.70024-0.72 0-1.34-0.578-1.34-1.312v-1.64376z" style="fill:#ffffff"/>
 <path d="m40 43.004139h1.387101c5.320932 0 9.612899 4.291967 9.612899 9.6129v1.387121h-1.55438c-0.743233 0-1.38324-0.629684-1.38324-1.387369 0-3.800814-2.877011-6.671107-6.67576-6.671107-0.743234 0-1.383425-0.629683-1.383241-1.387368l3.78e-4 -1.554528z" style="fill:#ffffff"/>
 <path d="M 42.483521,48.996629 C 43.862509,48.996629 45,50.134026 45,51.513109 45,52.891386 43.857678,54 42.490637,54 41.104869,54 40,52.891386 40,51.513109 c 0,-1.378989 1.108127,-2.51648 2.487079,-2.51648 z" style="fill:#ffffff"/>
</svg>

<svg xmlns="http://www.w3.org/2000/svg" width="64" height="64" version="1">
 <path style="opacity:0.2" d="m 4,50.002 0,2 c 0,1.662 1.338,3 3,3 l 50,0 c 1.662,0 3,-1.338 3,-3 l 0,-2 c 0,1.662 -1.338,3 -3,3 l -50,0 c -1.662,0 -3,-1.338 -3,-3 z"/>
 <rect style="fill:#325f78" width="44" height="56" x="-54" y="-60" rx="3" ry="3" transform="matrix(0,-1,-1,0,0,0)"/>
 <rect style="opacity:0.2" width="36" height="48" x="-50" y="-56" rx="0" ry="0" transform="matrix(0,-1,-1,0,0,0)"/>
 <path style="opacity:0.1;fill:#ffffff" d="M 7 10.001953 C 5.338 10.001953 4 11.339953 4 13.001953 L 4 14 C 4 12.338 5.338 11 7 11 L 57 11 C 58.662 11 60 12.338 60 14 L 60 13.001953 C 60 11.339953 58.662 10.001953 57 10.001953 L 7 10.001953 z"/>
 <path style="opacity:0.2" d="M 63.958,45.852 A 16,16 0 0 1 48,61.004 16,16 0 0 1 32.042,46.156 16,16 0 0 0 32,47 16,16 0 0 0 48,63 16,16 0 0 0 64,47 16,16 0 0 0 63.95704,45.85156 Z"/>
 <circle style="fill:#48cd42;fill-rule:evenodd" cx="48" cy="46.002" r="16"/>
 <path style="fill:#ffffff" d="m 40,38.004 1.34374,0 c 8.1,0 14.66,6.556 14.66,14.656 l 0,1.344 -1.64349,0 c -0.72872,0 -1.3125,-0.61022 -1.3125,-1.34376 0,-6.6274 -5.07287,-11.70024 -11.70027,-11.70024 -0.72,0 -1.34,-0.578 -1.34,-1.312 l 0,-1.64376 z"/>
 <path style="fill:#ffffff" d="m 40,43.004139 1.387101,0 c 5.320932,0 9.612899,4.291967 9.612899,9.6129 l 0,1.387121 -1.55438,0 c -0.743233,0 -1.38324,-0.629684 -1.38324,-1.387369 0,-3.800814 -2.877011,-6.671107 -6.67576,-6.671107 -0.743234,0 -1.383425,-0.629683 -1.383241,-1.387368 l 3.78e-4,-1.554528 z"/>
 <path style="fill:#ffffff" d="M 42.483521,48.996629 C 43.862509,48.996629 45,50.134026 45,51.513109 45,52.891386 43.857678,54 42.490637,54 41.104869,54 40,52.891386 40,51.513109 c 0,-1.378989 1.108127,-2.51648 2.487079,-2.51648 z"/>
</svg>
